assets/icons/uE030-user.svg

<svg xmlns="http://www.w3.org/2000/svg" width="896" height="1232" viewBox="0 0 896 1232"><path d="M896 891q2 25-15 43-16 18-41 18H56q-25 0-41-18-17-18-15-43 12-139 110-244.5T350 511q-63-28-101.5-87T210 294q0-98 70-168t168-70 168 70 70 168q0 71-38.5 130T546 511q142 30 240 135.5T896 891zM266 294q0 76 53 129t129 53 129-53 53-129q0-75-53-128.5T448 112t-129 53.5T266 294zM56 896h784q-12-143-124.5-241T448 557t-267.5 98T56 896z"/></svg>

<?xml version="1.0" encoding="UTF-8" standalone="no"?><svg   xmlns:svg="http://www.w3.org/2000/svg"   xmlns="http://www.w3.org/2000/svg"   version="1.1"   width="896"   height="1232"   viewBox="0 0 896 1232">  <path     d="M896 891Q898 916 881 934Q865 952 840 952H56Q31 952 15 934Q-2 916 0 891Q12 752 110 646.5T350 511Q287 483 248.5 424T210 294Q210 196 280 126T448 56T616 126T686 294Q686 365 647.5 424T546 511Q688 541 786 646.5T896 891zM266 294Q266 370 319 423T448 476T577 423T630 294Q630 219 577 165.5T448 112T319 165.5T266 294zM56 896H840Q828 753 715.5 655T448 557T180.5 655T56 896z"     id="icon367" /></svg>
